X:31
T:Emigrant's Adieu
T:Emigrant's Farewell
T:H\`o cha-n 'eil mulad oirnn
R:Slow Air
S:Simon Fraser Collection
N:No.226
N:transposed from E_
O:Scottish
M:C
L:1/8
Q:1/4=70
K:G
B|D<GGE~G>B dB g2|ef/g/ d>B A>G E>e|
d>cB>A BGG:|
A|B>AG>A FG E2|D>EG>B dB g2|ef/g/ d>c B>A G>e|
d>cB>A B>GG>A|B>AG>A FG E2|D>EG>B d<B g2|
b>ag>B ABE>e|d>cB>A BGG||
